!!!OTL: Der Baiersche Bettler. / Dasselbe, in anderer beliebter Weise.
!!!OTL-incipit:ICH UND MEIN JUNGES WEIB
!!!COM: C. M. v. Weber
!!!ARE: Europa, Mitteleuropa, Deutschland
!!!SCT: F0160
!!!TXL: @@DE
!!!YEM: Copyright 1995, estate of Helmut Schaffrath.
**kern	**text
*ICvox	*
*clefG2	*
!! Mixed meters:  3/8; 2/4
*M3/8	*
*k[f#c#g#]	*
*A:	*
=1	=1
!LO:TX:a:t=Wiegend.	!
{(16eL	.
16aJ)	.
8a	.
8e	.
=2	=2
(16eL	.
16cc#J)	.
(16cc#L	.
16eJ)	.
8e}	.
=3	=3
{(16eL	.
16aJ)	.
8a	.
8e	.
=4	=4
(16eL	.
16cc#J)	.
4a}	.
=5	=5
{(16eL	.
16aJ)	.
8a	.
8e	.
=6	=6
(16eL	.
16cc#J)	.
(16cc#L	.
16eJ)	.
8e}	.
=7	=7
{(16eL	.
16aJ)	.
8a	.
8e	.
=8	=8
(16eL	.
16cc#J)	.
4a}	.
=9	=9
{8ee	.
16e	.
16e	.
8e	.
=10	=10
8e	.
16f#L	.
16d#J	.
8e}	.
=11	=11
{8ee	.
8e	.
8e	.
=12	=12
8e	.
16f#L	.
16d#J	.
8e}	.
=13	=13
*M2/4	*
{8a^^	.
8e	.
8b^^	.
8e	.
=14	=14
*M3/8	*
8cc#	.
8dd	.
8b	.
=15	=15
4a	.
8r}	.
==	==
!!!AGN: Bettler - Lied
!!!ONB: ESAC (Essen Associative Code) Database: FINK
!!!AMT: irregular
!!!AIN: vox
!!!EED: Helmut Schaffrath
!!!EEV: 1.0
!!!GTL: Volkslieder
!!!source: Musikalischer Hausschatz der Deutschen. Eine Sammlung von über 1000 Liedern und Gesängen mit Singstimmen und Klavierbegleitung. Leipzig, Litterarisches Verlags-Haus.
!!!page: 94
!!!URL-scan: https://www.digitale-sammlungen.de/en/view/bsb11144622?page=102,103
!!!ENC: Anna Maria Matuszewska
!!!EEV: 2024/26/07
*-	*-